Papirus/48x48/apps/media-downloader.svg

<svg width="48" height="48" version="1.1" xmlns="http://www.w3.org/2000/svg">
 <circle cx="24" cy="25" r="20" style="opacity:.2"/>
 <circle cx="24" cy="24" r="20" style="fill:#25b7d3"/>
 <path d="M 24,4 A 20,20 0 0 0 4,24 20,20 0 0 0 4.0215,24.582 20,20 0 0 1 24,5 20,20 0 0 1 43.979,24.418 20,20 0 0 0 44,24 20,20 0 0 0 24,4 Z" style="fill:#ffffff;opacity:.2"/>
 <rect x="22" y="34" width="4.0000005" height="4.0000014" style="fill:#e2e4e5;stop-color:#000000"/>
 <rect x="11.107462" y="29.58453" width="25.892538" height="6.4154682" rx="1.3658534" ry="1.3658534" style="opacity:.2;stop-color:#000000"/>
 <rect x="11.107462" y="28.584532" width="25.892538" height="6.4154682" rx="1.3658534" ry="1.3658534" style="fill:#ffffff;stop-color:#000000"/>
 <circle cx="23.958414" cy="33" r=".99999857" style="fill:#cccccc"/>
 <rect x="17.999998" y="37" width="12.000001" height=".99999899" style="fill:#f0f1f1;stop-color:#000000"/>
 <path d="m12.473316 16.999999h23.160833c0.756684 0 1.365854 0.609171 1.365854 1.365853v12.634148h-25.892541v-12.634148c0-0.756682 0.60917-1.365853 1.365854-1.365853z" style="fill:#3f3f3f;stop-color:#000000"/>
 <path d="m12.472657 17.000001c-0.756684 0-1.365236 0.608552-1.365236 1.365234v1c0-0.756682 0.608552-1.365234 1.365236-1.365234h23.162108c0.756684 0 1.365234 0.608552 1.365234 1.365234v-1c0-0.756682-0.60855-1.365234-1.365234-1.365234z" style="fill:#ffffff;opacity:.2;stop-color:#000000"/>
 <circle cx="23.999998" cy="20" r="9" style="font-variation-settings:normal;opacity:.1;stop-color:#000000"/>
 <circle cx="23.999998" cy="19" r="9" style="fill:#ffffff"/>
 <path d="m22 12.999999h4v4.984685l4-0.0331-6 7.048416-6-7.048411 4 0.04841z" style="fill:#17b198;stop-color:#000000"/>
 <path d="m22 12.999999v1h4v-1zm-4 4.951173 0.859375 1.009765 3.140625 0.039061v-1zm12 0-4 0.03321v1l3.142578-0.02539z" style="fill:#ffffff;opacity:.2;stop-color:#000000"/>
 <rect x="17.999998" y="38" width="12.000001" height=".99999899" style="opacity:.2;stop-color:#000000"/>
</svg>

<svg xmlns="http://www.w3.org/2000/svg" width="48" height="48" version="1.1">
 <circle style="opacity:0.2" cx="24" cy="25" r="20"/>
 <circle style="fill:#25b7d3" cx="24" cy="24" r="20"/>
 <path style="fill:#ffffff;opacity:0.2" d="M 24,4 A 20,20 0 0 0 4,24 20,20 0 0 0 4.0215,24.582 20,20 0 0 1 24,5 20,20 0 0 1 43.979,24.418 20,20 0 0 0 44,24 20,20 0 0 0 24,4 Z"/>
 <rect style="fill:#e2e4e5" width="4" height="3.5" x="22" y="34"/>
 <rect style="opacity:0.2" width="26" height="6" x="11" y="30" rx="1.4" ry="1.4"/>
 <rect style="fill:#ffffff" width="26" height="6" x="11" y="29" rx="1.4" ry="1.4"/>
 <rect style="fill:#f2f2f2" width="12" height="1" x="18" y="37"/>
 <path style="fill:#3f3f3f" d="M 12.4 17 C 11.625 17 11 17.625 11 18.4 L 11 31 L 37 31 L 37 18.4 C 37 17.625 36.375 17 35.6 17 L 12.4 17 z"/>
 <circle style="fill:#cccccc" cx="24" cy="33" r="1"/>
 <path style="opacity:0.1;fill:#ffffff" d="M 12.4 17 C 11.625 17 11 17.625 11 18.4 L 11 19.4 C 11 18.625 11.625 18 12.4 18 L 35.6 18 C 36.375 18 37 18.625 37 19.4 L 37 18.4 C 37 17.625 36.375 17 35.6 17 L 12.4 17 z"/>
 <circle style="opacity:0.1" cx="24" cy="20" r="9"/>
 <circle style="fill:#ffffff" cx="24" cy="19" r="9"/>
 <path style="fill:#17b198" d="M 22,13 H 26 V 18 H 30 L 24,25 18,18 H 22 Z"/>
 <rect style="opacity:0.1" width="12" height="1" x="18" y="38"/>
</svg>
